scripts/lut_convert/AlexaV3_EI0160_LogC2Video_Rec709_LL_davinci3d.cube
# Alexa conversion LUT, logc2video, itu709. Legal in/legal out.
# created by alexalutconv (2.10)
LUT_3D_SIZE 33
0.062561 0.062561 0.062561
0.062561 0.062561 0.062561
0.062561 0.062561 0.062561
0.062561 0.062561 0.062561
0.068607 0.062561 0.062605
0.093832 0.062561 0.062788
0.124483 0.062561 0.063020
0.158359 0.062561 0.063374
0.195829 0.062561 0.063926
0.238374 0.062561 0.064787
0.291421 0.062561 0.066261
0.355977 0.062561 0.068738
0.426817 0.062561 0.072441
0.498974 0.062561 0.077413
0.570506 0.062561 0.083669
0.641320 0.062561 0.091293
0.711037 0.062561 0.100309
0.779257 0.062561 0.110691
0.845562 0.062561 0.121568
0.908566 0.062561 0.131902
0.918866 0.062561 0.140349
0.918866 0.062561 0.146836
0.918866 0.062561 0.151634
0.918866 0.062561 0.155014
0.918866 0.062561 0.157246
0.918866 0.062561 0.157656
0.918866 0.062561 0.157656
0.918866 0.062561 0.157656
0.918866 0.062561 0.157656
0.918866 0.062561 0.157656
0.918866 0.062561 0.157656
0.918866 0.062561 0.157656
0.918866 0.062561 0.157656
0.062561 0.062561 0.062561
0.062561 0.062561 0.062561
0.062561 0.062561 0.062561
0.062561 0.062561 0.062561
0.068607 0.062561 0.062605
0.093832 0.062561 0.062788
0.124483 0.062561 0.063020
0.158359 0.062561 0.063374
0.195829 0.062561 0.063926
0.238374 0.062561 0.064787
0.291421 0.062561 0.066261
0.355977 0.062561 0.068738
0.426817 0.062561 0.072441
0.498974 0.062561 0.077413
0.570506 0.062561 0.083669
0.641320 0.062561 0.091293
0.711037 0.062561 0.100309
0.779257 0.062561 0.110691
0.845562 0.062561 0.121568
0.908566 0.062561 0.131902
0.918866 0.062561 0.140349
0.918866 0.062561 0.146836
0.918866 0.062561 0.151634
0.918866 0.062561 0.155014
0.918866 0.062561 0.157246
0.918866 0.062561 0.157656
0.918866 0.062561 0.157656
0.918866 0.062561 0.157656
0.918866 0.062561 0.157656
0.918866 0.062561 0.157656
0.918866 0.062561 0.157656
0.918866 0.062561 0.157656
0.918866 0.062561 0.157656
0.062561 0.062561 0.062561
0.062561 0.062561 0.062561
0.062561 0.062561 0.062561
0.062561 0.062561 0.062561
0.068607 0.062561 0.062605
0.093832 0.062561 0.062788
0.124483 0.062561 0.063020
0.158359 0.062561 0.063374
0.195829 0.062561 0.063926
0.238374 0.062561 0.064787
0.291421 0.062561 0.066261
0.355977 0.062561 0.068738
0.426817 0.062561 0.072441
0.498974 0.062561 0.077413
0.570506 0.062561 0.083669
0.641320 0.062561 0.091293
0.711037 0.062561 0.100309
0.779257 0.062561 0.110691
0.845562 0.062561 0.121568
0.908566 0.062561 0.131902
0.918866 0.062561 0.140349
0.918866 0.062561 0.146836
0.918866 0.062561 0.151634
0.918866 0.062561 0.155014
0.918866 0.062561 0.157246
0.918866 0.062561 0.157656
0.918866 0.062561 0.157656
0.918866 0.062561 0.157656
0.918866 0.062561 0.157656
0.918866 0.062561 0.157656
0.918866 0.062561 0.157656
0.918866 0.062561 0.157656
0.918866 0.062561 0.157656
0.062561 0.062561 0.062561
0.062561 0.062561 0.062561
0.062561 0.062561 0.062561
0.062561 0.062561 0.062561
0.068607 0.062561 0.062605
0.093832 0.062561 0.062788
0.124483 0.062561 0.063020
0.158359 0.062561 0.063374
0.195829 0.062561 0.063926
0.238374 0.062561 0.064787
0.291421 0.062561 0.066261
0.355977 0.062561 0.068738
0.426817 0.062561 0.072441
0.498974 0.062561 0.077413
0.570506 0.062561 0.083669
0.641320 0.062561 0.091293
0.711037 0.062561 0.100309
0.779257 0.062561 0.110691
0.845562 0.062561 0.121568
0.908566 0.062561 0.131902
0.918866 0.062561 0.140349
0.918866 0.062561 0.146836
0.918866 0.062561 0.151634
0.918866 0.062561 0.155014
0.918866 0.062561 0.157246
0.918866 0.062561 0.157656
0.918866 0.062561 0.157656
0.918866 0.062561 0.157656
0.918866 0.062561 0.157656
0.918866 0.062561 0.157656
0.918866 0.062561 0.157656
0.918866 0.062561 0.157656
0.918866 0.062561 0.157656
0.062561 0.067784 0.062561
0.062561 0.067784 0.062561
0.062561 0.067784 0.062561
0.062561 0.067784 0.062561
0.066973 0.067647 0.062561
0.092198 0.067074 0.062561
0.123095 0.066349 0.062561
0.157397 0.065240 0.062877
0.195138 0.063512 0.063429
0.237867 0.062561 0.064291
0.291054 0.062561 0.065764
0.355712 0.062561 0.068241
0.426620 0.062561 0.071945
0.498821 0.062561 0.076916
0.570384 0.062561 0.083172
0.641220 0.062561 0.090796
0.710953 0.062561 0.099812
0.779184 0.062561 0.110194
0.845499 0.062561 0.121133
0.908510 0.062561 0.131518
0.918866 0.062561 0.139999
0.918866 0.062561 0.146509
0.918866 0.062561 0.151322
0.918866 0.062561 0.154712
0.918866 0.062561 0.156951
0.918866 0.062561 0.157362
0.918866 0.062561 0.157362
0.918866 0.062561 0.157362
0.918866 0.062561 0.157362
0.918866 0.062561 0.157362
0.918866 0.062561 0.157362
0.918866 0.062561 0.157362
0.918866 0.062561 0.157362
0.062561 0.089576 0.062561
0.062561 0.089576 0.062561
0.062561 0.089576 0.062561
0.062561 0.089576 0.062561
0.062561 0.089438 0.062561
0.085383 0.088865 0.062561
0.117045 0.088140 0.062561
0.153285 0.087032 0.062561
0.192211 0.085303 0.062561
0.235734 0.082607 0.062561
0.289514 0.077996 0.063691
0.354601 0.070241 0.066168
0.425797 0.062561 0.069872
0.498186 0.062561 0.074843
0.569876 0.062561 0.081099
0.640802 0.062561 0.088724
0.710601 0.062561 0.097740
0.778883 0.062561 0.108121
0.845236 0.062561 0.119296
0.908277 0.062561 0.129895
0.918866 0.062561 0.138523
0.918866 0.062561 0.145132
0.918866 0.062561 0.150012
0.918866 0.062561 0.153446
0.918866 0.062561 0.155712
0.918866 0.062561 0.156129
0.918866 0.062561 0.156129
0.918866 0.062561 0.156129
0.918866 0.062561 0.156129
0.918866 0.062561 0.156129
0.918866 0.062561 0.156129
0.918866 0.062561 0.156129
0.918866 0.062561 0.156129
0.062561 0.116903 0.062561
0.062561 0.116903 0.062561
0.062561 0.116903 0.062561
0.062561 0.116903 0.062561
0.062561 0.116777 0.062561
0.076757 0.116245 0.062561
0.108685 0.115566 0.062561
0.147825 0.114518 0.062561
0.188404 0.112856 0.062561
0.232990 0.110191 0.062561
0.287546 0.105578 0.062561
0.353188 0.097824 0.063545
0.424751 0.086229 0.067249
0.497379 0.070670 0.072219
0.569230 0.062561 0.078476
0.640271 0.062561 0.086100
0.710156 0.062561 0.095117
0.778500 0.062561 0.105498
0.844903 0.062561 0.116909
0.907982 0.062561 0.127796
0.918866 0.062561 0.136621
0.918866 0.062561 0.143361
0.918866 0.062561 0.148328
0.918866 0.062561 0.151819
0.918866 0.062561 0.154122
0.918866 0.062561 0.154545
0.918866 0.062561 0.154545
0.918866 0.062561 0.154545
0.918866 0.062561 0.154545
0.918866 0.062561 0.154545
0.918866 0.062561 0.154545
0.918866 0.062561 0.154545
0.918866 0.062561 0.154545
0.062561 0.149010 0.062561
0.062561 0.149010 0.062561
0.062561 0.149010 0.062561
0.062561 0.149010 0.062561
0.062561 0.148921 0.062561
0.063572 0.148551 0.062561
0.095500 0.148082 0.062561
0.138836 0.147360 0.062561
0.182342 0.146224 0.062561
0.228693 0.144423 0.062561
0.284495 0.141262 0.062561
0.351009 0.135694 0.062561
0.423143 0.126667 0.063239
0.496141 0.112800 0.068209
0.568242 0.093244 0.074466
0.639460 0.069377 0.082091
0.709473 0.062561 0.091107
0.777915 0.062561 0.101488
0.844393 0.062561 0.113117
0.907531 0.062561 0.124487
0.918866 0.062561 0.133633
0.918866 0.062561 0.140587
0.918866 0.062561 0.145697
0.918866 0.062561 0.149281
0.918866 0.062561 0.151643
0.918866 0.062561 0.152077
0.918866 0.062561 0.152077
0.918866 0.062561 0.152077
0.918866 0.062561 0.152077
0.918866 0.062561 0.152077
0.918866 0.062561 0.152077
0.918866 0.062561 0.152077
0.918866 0.062561 0.152077
0.062561 0.184521 0.062561
0.062561 0.184521 0.062561
0.062561 0.184521 0.062561
0.062561 0.184521 0.062561
0.062561 0.184457 0.062561
0.062561 0.184191 0.062561
0.074948 0.183854 0.062561
0.122772 0.183336 0.062561
0.172217 0.182526 0.062561
0.221729 0.181249 0.062561
0.279631 0.179032 0.062561
0.347568 0.175206 0.062561
0.420618 0.169233 0.062561
0.494203 0.160667 0.062561
0.566696 0.148778 0.068216
0.638191 0.131998 0.075841
0.708407 0.106868 0.084857
0.777003 0.074372 0.095238
0.843598 0.062561 0.106904
0.906827 0.062561 0.119051
0.918866 0.062561 0.128767
0.918866 0.062561 0.136092
0.918866 0.062561 0.141446
0.918866 0.062561 0.145190
0.918866 0.062561 0.147650
0.918866 0.062561 0.148102
0.918866 0.062561 0.148102
0.918866 0.062561 0.148102
0.918866 0.062561 0.148102
0.918866 0.062561 0.148102
0.918866 0.062561 0.148102
0.918866 0.062561 0.148102
0.918866 0.062561 0.148102
0.062561 0.224841 0.062561
0.062561 0.224841 0.062561
0.062561 0.224841 0.062561
0.062561 0.224841 0.062561
0.062561 0.224795 0.062561
0.062561 0.224600 0.062561
0.062561 0.224353 0.062561
0.091683 0.223974 0.062561
0.154289 0.223383 0.062561
0.210117 0.222454 0.062561
0.271760 0.220851 0.062561
0.342087 0.218115 0.062561
0.416626 0.213919 0.062561
0.491152 0.208075 0.062561
0.564270 0.200333 0.062561
0.636203 0.190215 0.066088
0.706739 0.177050 0.075104
0.775574 0.159723 0.085486
0.842355 0.135991 0.097153
0.905726 0.100909 0.109763
0.918866 0.065019 0.120578
0.918866 0.062561 0.128597
0.918866 0.062561 0.134401
0.918866 0.062561 0.138433
0.918866 0.062561 0.141073
0.918866 0.062561 0.141557
0.918866 0.062561 0.141557
0.918866 0.062561 0.141557
0.918866 0.062561 0.141557
0.918866 0.062561 0.141557
0.918866 0.062561 0.141557
0.918866 0.062561 0.141557
0.918866 0.062561 0.141557
0.062561 0.275116 0.062561
0.062561 0.275116 0.062561
0.062561 0.275116 0.062561
0.062561 0.275116 0.062561
0.062561 0.275082 0.062561
0.062561 0.274940 0.062561
0.062561 0.274761 0.062561
0.062561 0.274488 0.062561
0.112862 0.274060 0.062561
0.187515 0.273391 0.062561
0.257375 0.272239 0.062561
0.332363 0.270286 0.062561
0.409649 0.267321 0.062561
0.485861 0.263258 0.062561
0.560078 0.257997 0.062561
0.632777 0.251345 0.062561
0.703869 0.243097 0.062561
0.773121 0.233013 0.068802
0.840221 0.220784 0.080469
0.903839 0.206236 0.093080
0.918866 0.191446 0.104545
0.918866 0.177622 0.114013
0.918866 0.165488 0.120874
0.918866 0.155629 0.125566
0.918866 0.148349 0.128609
0.918866 0.146934 0.129164
0.918866 0.146934 0.129164
0.918866 0.146934 0.129164
0.918866 0.146934 0.129164
0.918866 0.146934 0.129164
0.918866 0.146934 0.129164
0.918866 0.146934 0.129164
0.918866 0.146934 0.129164
0.062561 0.336297 0.062561
0.062561 0.336297 0.062561
0.062561 0.336297 0.062561
0.062561 0.336297 0.062561
0.062561 0.336272 0.062561
0.062561 0.336171 0.062561
0.062561 0.336041 0.062561
0.062561 0.335843 0.062561
0.062561 0.335535 0.062561
0.135225 0.335052 0.062561
0.229793 0.334224 0.062561
0.314884 0.332825 0.062561
0.397458 0.330714 0.062561
0.476741 0.327847 0.062561
0.552911 0.324179 0.062561
0.626947 0.319617 0.062561
0.698999 0.314081 0.062561
0.768967 0.307505 0.062561
0.836612 0.299832 0.062561
0.900650 0.291166 0.065031
0.918866 0.282908 0.076496
0.918866 0.275729 0.086037
0.918866 0.269883 0.093516
0.918866 0.265459 0.099006
0.918866 0.262387 0.102734
0.918866 0.261809 0.103428
0.918866 0.261809 0.103428
0.918866 0.261809 0.103428
0.918866 0.261809 0.103428
0.918866 0.261809 0.103428
0.918866 0.261809 0.103428
0.918866 0.261809 0.103428
0.918866 0.261809 0.103428
0.062561 0.403434 0.062561
0.062561 0.403434 0.062561
0.062561 0.403434 0.062561
0.062561 0.403434 0.062561
0.062561 0.403416 0.062561
0.062561 0.403340 0.062561
0.062561 0.403244 0.062561
0.062561 0.403098 0.062561
0.062561 0.402868 0.062561
0.062561 0.402511 0.062561
0.174595 0.401898 0.062561
0.285368 0.400864 0.062561
0.377993 0.399309 0.062561
0.462541 0.397207 0.062561
0.541896 0.394535 0.062561
0.618056 0.391238 0.062561
0.691610 0.387281 0.062561
0.762684 0.382639 0.062561
0.831167 0.377311 0.062561
0.895846 0.371409 0.062561
0.918866 0.365907 0.062561
0.918866 0.361224 0.062561
0.918866 0.357481 0.062561
0.918866 0.354693 0.062561
0.918866 0.352780 0.062561
0.918866 0.352421 0.062561
0.918866 0.352421 0.062561
0.918866 0.352421 0.062561
0.918866 0.352421 0.062561
0.918866 0.352421 0.062561
0.918866 0.352421 0.062561
0.918866 0.352421 0.062561
0.918866 0.352421 0.062561
0.062561 0.471818 0.062561
0.062561 0.471818 0.062561
0.062561 0.471818 0.062561
0.062561 0.471818 0.062561
0.062561 0.471804 0.062561
0.062561 0.471746 0.062561
0.062561 0.471672 0.062561
0.062561 0.471558 0.062561
0.062561 0.471381 0.062561
0.062561 0.471105 0.062561
0.062561 0.470632 0.062561
0.235705 0.469836 0.062561
0.348967 0.468640 0.062561
0.442273 0.467028 0.062561
0.526503 0.464985 0.062561
0.605778 0.462476 0.062561
0.681482 0.459479 0.062561
0.754112 0.455988 0.062561
0.823765 0.452011 0.062561
0.889330 0.447646 0.062561
0.918866 0.443616 0.062561
0.918866 0.440216 0.062561
0.918866 0.437520 0.062561
0.918866 0.435523 0.062561
0.918866 0.434159 0.062561
0.918866 0.433905 0.062561
0.918866 0.433905 0.062561
0.918866 0.433905 0.062561
0.918866 0.433905 0.062561
0.918866 0.433905 0.062561
0.918866 0.433905 0.062561
0.918866 0.433905 0.062561
0.918866 0.433905 0.062561
0.062561 0.539611 0.062561
0.062561 0.539611 0.062561
0.062561 0.539611 0.062561
0.062561 0.539611 0.062561
0.062561 0.539600 0.062561
0.062561 0.539554 0.062561
0.062561 0.539494 0.062561
0.062561 0.539404 0.062561
0.062561 0.539262 0.062561
0.062561 0.539041 0.062561
0.062561 0.538663 0.062561
0.126209 0.538026 0.062561
0.305657 0.537071 0.062561
0.414357 0.535786 0.062561
0.505998 0.534161 0.062561
0.589710 0.532169 0.062561
0.668364 0.529799 0.062561
0.743086 0.527046 0.062561
0.814285 0.523924 0.062561
0.881013 0.520515 0.062561
0.918866 0.517383 0.062561
0.918866 0.514752 0.062561
0.918866 0.512674 0.062561
0.918866 0.511139 0.062561
0.918866 0.510093 0.062561
0.918866 0.509898 0.062561
0.918866 0.509898 0.062561
0.918866 0.509898 0.062561
0.918866 0.509898 0.062561
0.918866 0.509898 0.062561
0.918866 0.509898 0.062561
0.918866 0.509898 0.062561
0.918866 0.509898 0.062561
0.062561 0.606724 0.062561
0.062561 0.606724 0.062561
0.062561 0.606724 0.062561
0.062561 0.606724 0.062561
0.062561 0.606715 0.062561
0.062561 0.606676 0.062561
0.062561 0.606628 0.062561
0.062561 0.606553 0.062561
0.062561 0.606437 0.062561
0.062561 0.606255 0.062561
0.062561 0.605944 0.062561
0.062561 0.605420 0.062561
0.233682 0.604637 0.062561
0.375493 0.603582 0.062561
0.478979 0.602251 0.062561
0.569083 0.600621 0.062561
0.651771 0.598684 0.062561
0.729265 0.596441 0.062561
0.802476 0.593904 0.062561
0.870695 0.591140 0.062561
0.918866 0.588609 0.062561
0.918866 0.586488 0.062561
0.918866 0.584818 0.062561
0.918866 0.583586 0.062561
0.918866 0.582747 0.062561
0.918866 0.582591 0.062561
0.918866 0.582591 0.062561
0.918866 0.582591 0.062561
0.918866 0.582591 0.062561
0.918866 0.582591 0.062561
0.918866 0.582591 0.062561
0.918866 0.582591 0.062561
0.918866 0.582591 0.062561
0.062561 0.672796 0.062561
0.062561 0.672796 0.062561
0.062561 0.672796 0.062561
0.062561 0.672796 0.062561
0.062561 0.672789 0.062561
0.062561 0.672756 0.062561
0.062561 0.672715 0.062561
0.062561 0.672652 0.062561
0.062561 0.672555 0.062561
0.062561 0.672402 0.062561
0.062561 0.672140 0.062561
0.062561 0.671701 0.062561
0.062561 0.671042 0.062561
0.318798 0.670156 0.062561
0.443370 0.669039 0.062561
0.542961 0.667672 0.062561
0.631190 0.666050 0.062561
0.712334 0.664175 0.062561
0.788122 0.662057 0.062561
0.858220 0.659754 0.062561
0.914498 0.657649 0.062561
0.918866 0.655888 0.062561
0.918866 0.654502 0.062561
0.918866 0.653483 0.062561
0.918866 0.652788 0.062561
0.918866 0.652659 0.062561
0.918866 0.652659 0.062561
0.918866 0.652659 0.062561
0.918866 0.652659 0.062561
0.918866 0.652659 0.062561
0.918866 0.652659 0.062561
0.918866 0.652659 0.062561
0.918866 0.652659 0.062561
0.062561 0.737450 0.062561
0.062561 0.737450 0.062561
0.062561 0.737450 0.062561
0.062561 0.737450 0.062561
0.062561 0.737443 0.062561
0.062561 0.737415 0.062561
0.062561 0.737380 0.062561
0.062561 0.737326 0.062561
0.062561 0.737243 0.062561
0.062561 0.737111 0.062561
0.062561 0.736887 0.062561
0.062561 0.736510 0.062561
0.062561 0.735946 0.062561
0.221272 0.735187 0.062561
0.395438 0.734230 0.062561
0.510032 0.733062 0.062561
0.606011 0.731676 0.062561
0.691963 0.730074 0.062561
0.771031 0.728268 0.062561
0.843469 0.726307 0.062561
0.901275 0.724515 0.062561
0.918866 0.723019 0.062561
0.918866 0.721843 0.062561
0.918866 0.720977 0.062561
0.918866 0.720389 0.062561
0.918866 0.720279 0.062561
0.918866 0.720279 0.062561
0.918866 0.720279 0.062561
0.918866 0.720279 0.062561
0.918866 0.720279 0.062561
0.918866 0.720279 0.062561
0.918866 0.720279 0.062561
0.918866 0.720279 0.062561
0.062561 0.800289 0.062561
0.062561 0.800289 0.062561
0.062561 0.800289 0.062561
0.062561 0.800289 0.062561
0.062561 0.800283 0.062561
0.062561 0.800259 0.062561
0.062561 0.800228 0.062561
0.062561 0.800181 0.062561
0.062561 0.800108 0.062561
0.062561 0.799994 0.062561
0.062561 0.799799 0.062561
0.062561 0.799470 0.062561
0.062561 0.798979 0.062561
0.062561 0.798318 0.062561
0.326658 0.797485 0.062561
0.468229 0.796468 0.062561
0.575453 0.795262 0.062561
0.667800 0.793871 0.062561
0.751031 0.792302 0.062561
0.826354 0.790600 0.062561
0.886013 0.789048 0.062561
0.918866 0.787752 0.062561
0.918866 0.786734 0.062561
0.918866 0.785985 0.062561
0.918866 0.785475 0.062561
0.918866 0.785381 0.062561
0.918866 0.785381 0.062561
0.918866 0.785381 0.062561
0.918866 0.785381 0.062561
0.918866 0.785381 0.062561
0.918866 0.785381 0.062561
0.918866 0.785381 0.062561
0.918866 0.785381 0.062561
0.062561 0.859999 0.062561
0.062561 0.859999 0.062561
0.062561 0.859999 0.062561
0.062561 0.859999 0.062561
0.062561 0.859994 0.062561
0.062561 0.859973 0.062561
0.062561 0.859945 0.062561
0.062561 0.859904 0.062561
0.062561 0.859839 0.062561
0.062561 0.859738 0.062561
0.062561 0.859565 0.062561
0.062561 0.859274 0.062561
0.062561 0.858839 0.062561
0.062561 0.858254 0.062561
0.205906 0.857517 0.062561
0.414724 0.856617 0.062561
0.539056 0.855551 0.062561
0.639921 0.854320 0.062561
0.728356 0.852934 0.062561
0.807158 0.851432 0.062561
0.869001 0.850061 0.062561
0.915320 0.848919 0.062561
0.918866 0.848021 0.062561
0.918866 0.847361 0.062561
0.918866 0.846912 0.062561
0.918866 0.846829 0.062561
0.918866 0.846829 0.062561
0.918866 0.846829 0.062561
0.918866 0.846829 0.062561
0.918866 0.846829 0.062561
0.918866 0.846829 0.062561
0.918866 0.846829 0.062561
0.918866 0.846829 0.062561
0.062561 0.908801 0.062561
0.062561 0.908801 0.062561
0.062561 0.908801 0.062561
0.062561 0.908801 0.062561
0.062561 0.908797 0.062561
0.062561 0.908777 0.062561
0.062561 0.908753 0.062561
0.062561 0.908715 0.062561
0.062561 0.908656 0.062561
0.062561 0.908563 0.062561
0.062561 0.908406 0.062561
0.062561 0.908141 0.062561
0.062561 0.907744 0.062561
0.062561 0.907211 0.062561
0.062561 0.906540 0.062561
0.353622 0.905721 0.062561
0.501995 0.904751 0.062561
0.612680 0.903631 0.062561
0.706658 0.902370 0.062561
0.789011 0.901004 0.062561
0.853032 0.899759 0.062561
0.900719 0.898720 0.062561
0.918866 0.897905 0.062561
0.918866 0.897306 0.062561
0.918866 0.896898 0.062561
0.918866 0.896823 0.062561
0.918866 0.896823 0.062561
0.918866 0.896823 0.062561
0.918866 0.896823 0.062561
0.918866 0.896823 0.062561
0.918866 0.896823 0.062561
0.918866 0.896823 0.062561
0.918866 0.896823 0.062561
0.062561 0.918866 0.062561
0.062561 0.918866 0.062561
0.062561 0.918866 0.062561
0.062561 0.918866 0.062561
0.062561 0.918866 0.062561
0.062561 0.918866 0.062561
0.062561 0.918866 0.062561
0.062561 0.918866 0.062561
0.062561 0.918866 0.062561
0.062561 0.918866 0.062561
0.062561 0.918866 0.062561
0.062561 0.918866 0.062561
0.062561 0.918866 0.062561
0.062561 0.918866 0.062561
0.062561 0.918866 0.062561
0.284957 0.918866 0.062561
0.467281 0.918866 0.062561
0.588367 0.918866 0.062561
0.687713 0.918866 0.062561
0.773359 0.918866 0.062561
0.839348 0.918866 0.062561
0.888258 0.918866 0.062561
0.918866 0.918866 0.062561
0.918866 0.918866 0.062561
0.918866 0.918866 0.062561
0.918866 0.918866 0.062561
0.918866 0.918866 0.062561
0.918866 0.918866 0.062561
0.918866 0.918866 0.062561
0.918866 0.918866 0.062561
0.918866 0.918866 0.062561
0.918866 0.918866 0.062561
0.918866 0.918866 0.062561
0.062561 0.918866 0.062561
0.062561 0.918866 0.062561
0.062561 0.918866 0.062561
0.062561 0.918866 0.062561
0.062561 0.918866 0.062561
0.062561 0.918866 0.062561
0.062561 0.918866 0.062561
0.062561 0.918866 0.062561
0.062561 0.918866 0.062561
0.062561 0.918866 0.062561
0.062561 0.918866 0.062561
0.062561 0.918866 0.062561
0.062561 0.918866 0.062561
0.062561 0.918866 0.062561
0.062561 0.918866 0.062561
0.201991 0.918866 0.062561
0.436740 0.918866 0.062561
0.568062 0.918866 0.062561
0.672225 0.918866 0.062561
0.760704 0.918866 0.062561
0.828352 0.918866 0.062561
0.878278 0.918866 0.062561
0.914313 0.918866 0.062561
0.918866 0.918866 0.062561
0.918866 0.918866 0.062561
0.918866 0.918866 0.062561
0.918866 0.918866 0.062561
0.918866 0.918866 0.062561
0.918866 0.918866 0.062561
0.918866 0.918866 0.062561
0.918866 0.918866 0.062561
0.918866 0.918866 0.062561
0.918866 0.918866 0.062561
0.062561 0.918866 0.062561
0.062561 0.918866 0.062561
0.062561 0.918866 0.062561
0.062561 0.918866 0.062561
0.062561 0.918866 0.062561
0.062561 0.918866 0.062561
0.062561 0.918866 0.062561
0.062561 0.918866 0.062561
0.062561 0.918866 0.062561
0.062561 0.918866 0.062561
0.062561 0.918866 0.062561
0.062561 0.918866 0.062561
0.062561 0.918866 0.062561
0.062561 0.918866 0.062561
0.062561 0.918866 0.062561
0.062561 0.918866 0.062561
0.411861 0.918866 0.062561
0.552353 0.918866 0.062561
0.660465 0.918866 0.062561
0.751187 0.918866 0.062561
0.820122 0.918866 0.062561
0.870830 0.918866 0.062561
0.907358 0.918866 0.062561
0.918866 0.918866 0.062561
0.918866 0.918866 0.062561
0.918866 0.918866 0.062561
0.918866 0.918866 0.062561
0.918866 0.918866 0.062561
0.918866 0.918866 0.062561
0.918866 0.918866 0.062561
0.918866 0.918866 0.062561
0.918866 0.918866 0.062561
0.918866 0.918866 0.062561
0.062561 0.918866 0.062561
0.062561 0.918866 0.062561
0.062561 0.918866 0.062561
0.062561 0.918866 0.062561
0.062561 0.918866 0.062561
0.062561 0.918866 0.062561
0.062561 0.918866 0.062561
0.062561 0.918866 0.062561
0.062561 0.918866 0.062561
0.062561 0.918866 0.062561
0.062561 0.918866 0.062561
0.062561 0.918866 0.062561
0.062561 0.918866 0.062561
0.062561 0.918866 0.062561
0.062561 0.918866 0.062561
0.062561 0.918866 0.062561
0.393449 0.918866 0.062561
0.541247 0.918866 0.062561
0.652275 0.918866 0.062561
0.744607 0.918866 0.062561
0.814454 0.918866 0.062561
0.865710 0.918866 0.062561
0.902584 0.918866 0.062561
0.918866 0.918866 0.062561
0.918866 0.918866 0.062561
0.918866 0.918866 0.062561
0.918866 0.918866 0.062561
0.918866 0.918866 0.062561
0.918866 0.918866 0.062561
0.918866 0.918866 0.062561
0.918866 0.918866 0.062561
0.918866 0.918866 0.062561
0.918866 0.918866 0.062561
0.062561 0.918866 0.062561
0.062561 0.918866 0.062561
0.062561 0.918866 0.062561
0.062561 0.918866 0.062561
0.062561 0.918866 0.062561
0.062561 0.918866 0.062561
0.062561 0.918866 0.062561
0.062561 0.918866 0.062561
0.062561 0.918866 0.062561
0.062561 0.918866 0.062561
0.062561 0.918866 0.062561
0.062561 0.918866 0.062561
0.062561 0.918866 0.062561
0.062561 0.918866 0.062561
0.062561 0.918866 0.062561
0.062561 0.918866 0.062561
0.389862 0.918866 0.062561
0.539138 0.918866 0.062561
0.650732 0.918866 0.062561
0.743371 0.918866 0.062561
0.813391 0.918866 0.062561
0.864752 0.918866 0.062561
0.901690 0.918866 0.062561
0.918866 0.918866 0.062561
0.918866 0.918866 0.062561
0.918866 0.918866 0.062561
0.918866 0.918866 0.062561
0.918866 0.918866 0.062561
0.918866 0.918866 0.062561
0.918866 0.918866 0.062561
0.918866 0.918866 0.062561
0.918866 0.918866 0.062561
0.918866 0.918866 0.062561
0.062561 0.918866 0.062561
0.062561 0.918866 0.062561
0.062561 0.918866 0.062561
0.062561 0.918866 0.062561
0.062561 0.918866 0.062561
0.062561 0.918866 0.062561
0.062561 0.918866 0.062561
0.062561 0.918866 0.062561
0.062561 0.918866 0.062561
0.062561 0.918866 0.062561
0.062561 0.918866 0.062561
0.062561 0.918866 0.062561
0.062561 0.918866 0.062561
0.062561 0.918866 0.062561
0.062561 0.918866 0.062561
0.062561 0.918866 0.062561
0.389862 0.918866 0.062561
0.539138 0.918866 0.062561
0.650732 0.918866 0.062561
0.743371 0.918866 0.062561
0.813391 0.918866 0.062561
0.864752 0.918866 0.062561
0.901690 0.918866 0.062561
0.918866 0.918866 0.062561
0.918866 0.918866 0.062561
0.918866 0.918866 0.062561
