scripts/lut_convert/AlexaV3_EI0160_LogC2Video_Rec709_LL_davinci3d.cube
# Alexa conversion LUT, logc2video, itu709. Legal in/legal out.
# created by alexalutconv (2.10)
LUT_3D_SIZE 9
0.062561 0.062561 0.062561
0.068607 0.062561 0.062605
0.195829 0.062561 0.063926
0.426817 0.062561 0.072441
0.711037 0.062561 0.100309
0.918866 0.062561 0.140349
0.918866 0.062561 0.157246
0.918866 0.062561 0.157656
0.918866 0.062561 0.157656
0.062561 0.067784 0.062561
0.066973 0.067647 0.062561
0.195138 0.063512 0.063429
0.426620 0.062561 0.071945
0.710953 0.062561 0.099812
0.918866 0.062561 0.139999
0.918866 0.062561 0.156951
0.918866 0.062561 0.157362
0.918866 0.062561 0.157362
0.062561 0.184521 0.062561
0.062561 0.184457 0.062561
0.172217 0.182526 0.062561
0.420618 0.169233 0.062561
0.708407 0.106868 0.084857
0.918866 0.062561 0.128767
0.918866 0.062561 0.147650
0.918866 0.062561 0.148102
0.918866 0.062561 0.148102
0.062561 0.403434 0.062561
0.062561 0.403416 0.062561
0.062561 0.402868 0.062561
0.377993 0.399309 0.062561
0.691610 0.387281 0.062561
0.918866 0.365907 0.062561
0.918866 0.352780 0.062561
0.918866 0.352421 0.062561
0.918866 0.352421 0.062561
0.062561 0.672796 0.062561
0.062561 0.672789 0.062561
0.062561 0.672555 0.062561
0.062561 0.671042 0.062561
0.631190 0.666050 0.062561
0.914498 0.657649 0.062561
0.918866 0.652788 0.062561
0.918866 0.652659 0.062561
0.918866 0.652659 0.062561
0.062561 0.908801 0.062561
0.062561 0.908797 0.062561
0.062561 0.908656 0.062561
0.062561 0.907744 0.062561
0.501995 0.904751 0.062561
0.853032 0.899759 0.062561
0.918866 0.896898 0.062561
0.918866 0.896823 0.062561
0.918866 0.896823 0.062561
0.062561 0.918866 0.062561
0.062561 0.918866 0.062561
0.062561 0.918866 0.062561
0.062561 0.918866 0.062561
0.393449 0.918866 0.062561
0.814454 0.918866 0.062561
0.918866 0.918866 0.062561
0.918866 0.918866 0.062561
0.918866 0.918866 0.062561
0.062561 0.918866 0.062561
0.062561 0.918866 0.062561
0.062561 0.918866 0.062561
0.062561 0.918866 0.062561
0.389862 0.918866 0.062561
0.813391 0.918866 0.062561
0.918866 0.918866 0.062561
0.918866 0.918866 0.062561
0.918866 0.918866 0.062561
0.062561 0.918866 0.062561
0.062561 0.918866 0.062561
0.062561 0.918866 0.062561
0.062561 0.918866 0.062561
0.389862 0.918866 0.062561
0.813391 0.918866 0.062561
0.918866 0.918866 0.062561
0.918866 0.918866 0.062561
0.918866 0.918866 0.062561
0.062561 0.062561 0.067085
0.068266 0.062561 0.067129
0.195685 0.062561 0.068450
0.426776 0.062561 0.076966
0.711020 0.062561 0.104834
0.918866 0.062561 0.143481
0.918866 0.062561 0.159892
0.918866 0.062561 0.160291
0.918866 0.062561 0.160291
0.062561 0.066770 0.066589
0.066632 0.066632 0.066632
0.194993 0.062561 0.067953
0.426579 0.062561 0.076469
0.710935 0.062561 0.104337
0.918866 0.062561 0.143142
0.918866 0.062561 0.159604
0.918866 0.062561 0.160006
0.918866 0.062561 0.160006
0.062561 0.184050 0.062561
0.062561 0.183986 0.062561
0.172041 0.182047 0.062561
0.420575 0.168694 0.062561
0.708390 0.105854 0.089380
0.918866 0.062561 0.132316
0.918866 0.062561 0.150557
0.918866 0.062561 0.150995
0.918866 0.062561 0.150995
0.062561 0.403300 0.062561
0.062561 0.403282 0.062561
0.062561 0.402734 0.062561
0.377942 0.399173 0.062561
0.691592 0.387137 0.062561
0.918866 0.365750 0.062561
0.918866 0.352612 0.065317
0.918866 0.352254 0.066011
0.918866 0.352254 0.066011
0.062561 0.672739 0.062561
0.062561 0.672731 0.062561
0.062561 0.672497 0.062561
0.062561 0.670984 0.062561
0.631168 0.665992 0.062561
0.914487 0.657589 0.062561
0.918866 0.652728 0.062561
0.918866 0.652599 0.062561
0.918866 0.652599 0.062561
0.062561 0.908767 0.062561
0.062561 0.908762 0.062561
0.062561 0.908621 0.062561
0.062561 0.907709 0.062561
0.501963 0.904716 0.062561
0.853018 0.899724 0.062561
0.918866 0.896862 0.062561
0.918866 0.896787 0.062561
0.918866 0.896787 0.062561
0.062561 0.918866 0.062561
0.062561 0.918866 0.062561
0.062561 0.918866 0.062561
0.062561 0.918866 0.062561
0.393402 0.918866 0.062561
0.814440 0.918866 0.062561
0.918866 0.918866 0.062561
0.918866 0.918866 0.062561
0.918866 0.918866 0.062561
0.062561 0.918866 0.062561
0.062561 0.918866 0.062561
0.062561 0.918866 0.062561
0.062561 0.918866 0.062561
0.389814 0.918866 0.062561
0.813377 0.918866 0.062561
0.918866 0.918866 0.062561
0.918866 0.918866 0.062561
0.918866 0.918866 0.062561
0.062561 0.918866 0.062561
0.062561 0.918866 0.062561
0.062561 0.918866 0.062561
0.062561 0.918866 0.062561
0.389814 0.918866 0.062561
0.813377 0.918866 0.062561
0.918866 0.918866 0.062561
0.918866 0.918866 0.062561
0.918866 0.918866 0.062561
0.062561 0.062561 0.173994
0.062561 0.062561 0.174016
0.191267 0.062561 0.174684
0.425535 0.062561 0.178897
0.710490 0.062561 0.191715
0.918866 0.062561 0.210393
0.918866 0.062561 0.219947
0.918866 0.062561 0.220191
0.918866 0.062561 0.220191
0.062561 0.062561 0.173741
0.062561 0.062561 0.173764
0.190550 0.062561 0.174433
0.425337 0.062561 0.178656
0.710405 0.062561 0.191498
0.918866 0.062561 0.210205
0.918866 0.062561 0.219772
0.918866 0.062561 0.220016
0.918866 0.062561 0.220016
0.062561 0.168901 0.165867
0.062561 0.168828 0.165891
0.166609 0.166609 0.166609
0.419304 0.151065 0.171132
0.707856 0.075315 0.184778
0.918866 0.062561 0.204432
0.918866 0.062561 0.214402
0.918866 0.062561 0.214655
0.918866 0.062561 0.214655
0.062561 0.399225 0.091415
0.062561 0.399206 0.091459
0.062561 0.398649 0.092779
0.376426 0.395027 0.101296
0.691036 0.382775 0.127300
0.918866 0.360955 0.158784
0.918866 0.347518 0.173093
0.918866 0.347151 0.173447
0.918866 0.347151 0.173447
0.062561 0.671007 0.062561
0.062561 0.670998 0.062561
0.062561 0.670763 0.062561
0.062561 0.669243 0.062561
0.630521 0.664230 0.062561
0.914140 0.655789 0.062561
0.918866 0.650905 0.062561
0.918866 0.650775 0.062561
0.918866 0.650775 0.062561
0.062561 0.907723 0.062561
0.062561 0.907718 0.062561
0.062561 0.907576 0.062561
0.062561 0.906663 0.062561
0.501014 0.903663 0.062561
0.852628 0.898662 0.062561
0.918866 0.895795 0.062561
0.918866 0.895719 0.062561
0.918866 0.895719 0.062561
0.062561 0.918866 0.062561
0.062561 0.918866 0.062561
0.062561 0.918866 0.062561
0.062561 0.918866 0.062561
0.391982 0.918866 0.062561
0.814018 0.918866 0.062561
0.918866 0.918866 0.062561
0.918866 0.918866 0.062561
0.918866 0.918866 0.062561
0.062561 0.918866 0.062561
0.062561 0.918866 0.062561
0.062561 0.918866 0.062561
0.062561 0.918866 0.062561
0.388372 0.918866 0.062561
0.812954 0.918866 0.062561
0.918866 0.918866 0.062561
0.918866 0.918866 0.062561
0.918866 0.918866 0.062561
0.062561 0.918866 0.062561
0.062561 0.918866 0.062561
0.062561 0.918866 0.062561
0.062561 0.918866 0.062561
0.388372 0.918866 0.062561
0.812954 0.918866 0.062561
0.918866 0.918866 0.062561
0.918866 0.918866 0.062561
0.918866 0.918866 0.062561
0.062561 0.062561 0.381667
0.062561 0.062561 0.381674
0.157912 0.062561 0.381865
0.417384 0.062561 0.383094
0.707054 0.062561 0.387072
0.918866 0.062561 0.393513
0.918866 0.062561 0.397101
0.918866 0.062561 0.397195
0.918866 0.062561 0.397195
0.062561 0.062561 0.381595
0.062561 0.062561 0.381602
0.156946 0.062561 0.381793
0.417180 0.062561 0.383023
0.706969 0.062561 0.387001
0.918866 0.062561 0.393444
0.918866 0.062561 0.397033
0.918866 0.062561 0.397127
0.918866 0.062561 0.397127
0.062561 0.062561 0.379418
0.062561 0.062561 0.379424
0.122116 0.062561 0.379618
0.410948 0.062561 0.380859
0.704399 0.062561 0.384875
0.918866 0.062561 0.391374
0.918866 0.062561 0.394994
0.918866 0.062561 0.395089
0.918866 0.062561 0.395089
0.062561 0.371137 0.364863
0.062561 0.371116 0.364869
0.062561 0.370488 0.365075
0.366397 0.366397 0.366397
0.687436 0.352460 0.370672
0.918866 0.327190 0.377575
0.918866 0.311276 0.381411
0.918866 0.310838 0.381512
0.918866 0.310838 0.381512
0.062561 0.659649 0.308904
0.062561 0.659641 0.308913
0.062561 0.659399 0.309183
0.062561 0.657835 0.310913
0.626319 0.652673 0.316468
0.911896 0.643976 0.325330
0.918866 0.638941 0.330201
0.918866 0.638806 0.330328
0.918866 0.638806 0.330328
0.062561 0.900942 0.129393
0.062561 0.900937 0.129427
0.062561 0.900794 0.130471
0.062561 0.899869 0.136917
0.494825 0.896831 0.155358
0.850103 0.891764 0.180088
0.918866 0.888860 0.192078
0.918866 0.888783 0.192380
0.918866 0.888783 0.192380
0.062561 0.918866 0.062561
0.062561 0.918866 0.062561
0.062561 0.918866 0.062561
0.062561 0.918866 0.062561
0.382618 0.918866 0.062561
0.811288 0.918866 0.062561
0.918866 0.918866 0.062561
0.918866 0.918866 0.062561
0.918866 0.918866 0.062561
0.062561 0.918866 0.062561
0.062561 0.918866 0.062561
0.062561 0.918866 0.062561
0.062561 0.918866 0.062561
0.378861 0.918866 0.062561
0.810218 0.918866 0.062561
0.918866 0.918866 0.062561
0.918866 0.918866 0.062561
0.918866 0.918866 0.062561
0.062561 0.918866 0.062561
0.062561 0.918866 0.062561
0.062561 0.918866 0.062561
0.062561 0.918866 0.062561
0.378861 0.918866 0.062561
0.810218 0.918866 0.062561
0.918866 0.918866 0.062561
0.918866 0.918866 0.062561
0.918866 0.918866 0.062561
0.062561 0.062561 0.637200
0.062561 0.062561 0.637202
0.062561 0.062561 0.637284
0.388686 0.062561 0.637812
0.695611 0.062561 0.639533
0.918866 0.062561 0.642365
0.918866 0.062561 0.643966
0.918866 0.062561 0.644008
0.918866 0.062561 0.644008
0.062561 0.062561 0.637168
0.062561 0.062561 0.637171
0.062561 0.062561 0.637253
0.388456 0.062561 0.637781
0.695523 0.062561 0.639502
0.918866 0.062561 0.642334
0.918866 0.062561 0.643936
0.918866 0.062561 0.643979
0.918866 0.062561 0.643979
0.062561 0.062561 0.636240
0.062561 0.062561 0.636243
0.062561 0.062561 0.636325
0.381432 0.062561 0.636854
0.692882 0.062561 0.638579
0.918866 0.062561 0.641418
0.918866 0.062561 0.643024
0.918866 0.062561 0.643066
0.918866 0.062561 0.643066
0.062561 0.237361 0.630198
0.062561 0.237318 0.630201
0.062561 0.236023 0.630285
0.329950 0.227388 0.630822
0.675428 0.194669 0.632575
0.918866 0.103511 0.635459
0.918866 0.062561 0.637090
0.918866 0.062561 0.637133
0.918866 0.062561 0.637133
0.062561 0.619978 0.609717
0.062561 0.619969 0.609720
0.062561 0.619700 0.609808
0.062561 0.617965 0.610376
0.612228 0.612228 0.612228
0.904487 0.602530 0.615272
0.918866 0.596895 0.616993
0.918866 0.596744 0.617039
0.918866 0.596744 0.617039
0.062561 0.878126 0.573046
0.062561 0.878121 0.573049
0.062561 0.877971 0.573147
0.062561 0.877005 0.573777
0.473615 0.873832 0.575828
0.841752 0.868537 0.579199
0.918866 0.865500 0.581101
0.918866 0.865419 0.581151
0.918866 0.865419 0.581151
0.062561 0.918866 0.550314
0.062561 0.918866 0.550317
0.062561 0.918866 0.550422
0.062561 0.918866 0.551095
0.348988 0.918866 0.553289
0.802242 0.918866 0.556889
0.918866 0.918866 0.558919
0.918866 0.918866 0.558972
0.918866 0.918866 0.558972
0.062561 0.918866 0.549691
0.062561 0.918866 0.549695
0.062561 0.918866 0.549799
0.062561 0.918866 0.550474
0.344612 0.918866 0.552672
0.801152 0.918866 0.556278
0.918866 0.918866 0.558312
0.918866 0.918866 0.558366
0.918866 0.918866 0.558366
0.062561 0.918866 0.549691
0.062561 0.918866 0.549695
0.062561 0.918866 0.549799
0.062561 0.918866 0.550474
0.344612 0.918866 0.552672
0.801152 0.918866 0.556278
0.918866 0.918866 0.558312
0.918866 0.918866 0.558366
0.918866 0.918866 0.558366
0.062561 0.062561 0.861086
0.062561 0.062561 0.861088
0.062561 0.062561 0.861137
0.331638 0.062561 0.861456
0.675947 0.062561 0.862497
0.918866 0.062561 0.864214
0.918866 0.062561 0.865189
0.918866 0.062561 0.865215
0.918866 0.062561 0.865215
0.062561 0.062561 0.861068
0.062561 0.062561 0.861070
0.062561 0.062561 0.861119
0.331340 0.062561 0.861438
0.675855 0.062561 0.862478
0.918866 0.062561 0.864196
0.918866 0.062561 0.865170
0.918866 0.062561 0.865196
0.918866 0.062561 0.865196
0.062561 0.062561 0.860509
0.062561 0.062561 0.860510
0.062561 0.062561 0.860559
0.322164 0.062561 0.860878
0.673082 0.062561 0.861920
0.918866 0.062561 0.863639
0.918866 0.062561 0.864615
0.918866 0.062561 0.864641
0.918866 0.062561 0.864641
0.062561 0.062561 0.856885
0.062561 0.062561 0.856886
0.062561 0.062561 0.856936
0.248790 0.062561 0.857257
0.654728 0.062561 0.858306
0.918866 0.062561 0.860038
0.918866 0.062561 0.861020
0.918866 0.062561 0.861046
0.918866 0.062561 0.861046
0.062561 0.543015 0.844842
0.062561 0.543004 0.844843
0.062561 0.542669 0.844895
0.062561 0.540502 0.845223
0.587639 0.533306 0.846297
0.891994 0.521030 0.848071
0.918866 0.513827 0.849076
0.918866 0.513634 0.849103
0.918866 0.513634 0.849103
0.062561 0.838003 0.824249
0.062561 0.837998 0.824250
0.062561 0.837835 0.824304
0.062561 0.836790 0.824647
0.434588 0.833354 0.825766
0.827614 0.827614 0.827614
0.918866 0.824319 0.828663
0.918866 0.824231 0.828690
0.918866 0.824231 0.828690
0.062561 0.918866 0.812138
0.062561 0.918866 0.812140
0.062561 0.918866 0.812194
0.062561 0.918866 0.812546
0.277497 0.918866 0.813693
0.786883 0.918866 0.815587
0.918866 0.918866 0.816662
0.918866 0.918866 0.816690
0.918866 0.918866 0.816690
0.062561 0.918866 0.811813
0.062561 0.918866 0.811815
0.062561 0.918866 0.811870
0.062561 0.918866 0.812222
0.271102 0.918866 0.813370
0.785757 0.918866 0.815266
0.918866 0.918866 0.816340
0.918866 0.918866 0.816369
0.918866 0.918866 0.816369
0.062561 0.918866 0.811813
0.062561 0.918866 0.811815
0.062561 0.918866 0.811870
0.062561 0.918866 0.812222
0.271102 0.918866 0.813370
0.785757 0.918866 0.815266
0.918866 0.918866 0.816340
0.918866 0.918866 0.816369
0.918866 0.918866 0.816369
0.062561 0.062561 0.918866
0.062561 0.062561 0.918866
0.062561 0.062561 0.918866
0.290437 0.062561 0.918866
0.664320 0.062561 0.918866
0.918866 0.062561 0.918866
0.918866 0.062561 0.918866
0.918866 0.062561 0.918866
0.918866 0.062561 0.918866
0.062561 0.062561 0.918866
0.062561 0.062561 0.918866
0.062561 0.062561 0.918866
0.290068 0.062561 0.918866
0.664225 0.062561 0.918866
0.918866 0.062561 0.918866
0.918866 0.062561 0.918866
0.918866 0.062561 0.918866
0.918866 0.062561 0.918866
0.062561 0.062561 0.918866
0.062561 0.062561 0.918866
0.062561 0.062561 0.918866
0.278579 0.062561 0.918866
0.661370 0.062561 0.918866
0.918866 0.062561 0.918866
0.918866 0.062561 0.918866
0.918866 0.062561 0.918866
0.918866 0.062561 0.918866
0.062561 0.062561 0.918866
0.062561 0.062561 0.918866
0.062561 0.062561 0.918866
0.172367 0.062561 0.918866
0.642448 0.062561 0.918866
0.918866 0.062561 0.918866
0.918866 0.062561 0.918866
0.918866 0.062561 0.918866
0.918866 0.062561 0.918866
0.062561 0.489651 0.918866
0.062561 0.489637 0.918866
0.062561 0.489240 0.918866
0.062561 0.486664 0.918866
0.572850 0.478070 0.918866
0.884754 0.463256 0.918866
0.918866 0.454469 0.918866
0.918866 0.454233 0.918866
0.918866 0.454233 0.918866
0.062561 0.813657 0.918866
0.062561 0.813651 0.918866
0.062561 0.813481 0.918866
0.062561 0.812383 0.918866
0.409539 0.808770 0.918866
0.819387 0.802730 0.918866
0.918866 0.799261 0.918866
0.918866 0.799168 0.918866
0.918866 0.799168 0.918866
0.062561 0.918866 0.912984
0.062561 0.918866 0.912985
0.062561 0.918866 0.913030
0.062561 0.918866 0.913319
0.218277 0.918866 0.914262
0.777916 0.918866 0.915819
0.916703 0.916703 0.916703
0.918866 0.916630 0.916726
0.918866 0.916630 0.916726
0.062561 0.918866 0.912718
0.062561 0.918866 0.912720
0.062561 0.918866 0.912764
0.062561 0.918866 0.913053
0.208755 0.918866 0.913996
0.776768 0.918866 0.915554
0.915833 0.918866 0.916438
0.918866 0.918866 0.916462
0.918866 0.918866 0.916462
0.062561 0.918866 0.912718
0.062561 0.918866 0.912720
0.062561 0.918866 0.912764
0.062561 0.918866 0.913053
0.208755 0.918866 0.913996
0.776768 0.918866 0.915554
0.915833 0.918866 0.916438
0.918866 0.918866 0.916462
0.918866 0.918866 0.916462
0.062561 0.062561 0.918866
0.062561 0.062561 0.918866
0.062561 0.062561 0.918866
0.289214 0.062561 0.918866
0.664007 0.062561 0.918866
0.918866 0.062561 0.918866
0.918866 0.062561 0.918866
0.918866 0.062561 0.918866
0.918866 0.062561 0.918866
0.062561 0.062561 0.918866
0.062561 0.062561 0.918866
0.062561 0.062561 0.918866
0.288843 0.062561 0.918866
0.663913 0.062561 0.918866
0.918866 0.062561 0.918866
0.918866 0.062561 0.918866
0.918866 0.062561 0.918866
0.918866 0.062561 0.918866
0.062561 0.062561 0.918866
0.062561 0.062561 0.918866
0.062561 0.062561 0.918866
0.277272 0.062561 0.918866
0.661056 0.062561 0.918866
0.918866 0.062561 0.918866
0.918866 0.062561 0.918866
0.918866 0.062561 0.918866
0.918866 0.062561 0.918866
0.062561 0.062561 0.918866
0.062561 0.062561 0.918866
0.062561 0.062561 0.918866
0.169555 0.062561 0.918866
0.642118 0.062561 0.918866
0.918866 0.062561 0.918866
0.918866 0.062561 0.918866
0.918866 0.062561 0.918866
0.918866 0.062561 0.918866
0.062561 0.488105 0.918866
0.062561 0.488092 0.918866
0.062561 0.487692 0.918866
0.062561 0.485102 0.918866
0.572450 0.476461 0.918866
0.884561 0.461562 0.918866
0.918866 0.452720 0.918866
0.918866 0.452482 0.918866
0.918866 0.452482 0.918866
0.062561 0.812996 0.918866
0.062561 0.812991 0.918866
0.062561 0.812821 0.918866
0.062561 0.811720 0.918866
0.408842 0.808102 0.918866
0.819168 0.802054 0.918866
0.918866 0.798580 0.918866
0.918866 0.798488 0.918866
0.918866 0.798488 0.918866
0.062561 0.918866 0.915403
0.062561 0.918866 0.915405
0.062561 0.918866 0.915450
0.062561 0.918866 0.915737
0.216343 0.918866 0.916676
0.777677 0.918866 0.918226
0.916522 0.916163 0.918866
0.918866 0.916089 0.918866
0.918866 0.916089 0.918866
0.062561 0.918866 0.915138
0.062561 0.918866 0.915140
0.062561 0.918866 0.915185
0.062561 0.918866 0.915472
0.206678 0.918866 0.916411
0.776528 0.918866 0.917963
0.915651 0.918866 0.918843
0.918866 0.918866 0.918866
0.918866 0.918866 0.918866
0.062561 0.918866 0.915138
0.062561 0.918866 0.915140
0.062561 0.918866 0.915185
0.062561 0.918866 0.915472
0.206678 0.918866 0.916411
0.776528 0.918866 0.917963
0.915651 0.918866 0.918843
0.918866 0.918866 0.918866
0.918866 0.918866 0.918866
0.062561 0.062561 0.918866
0.062561 0.062561 0.918866
0.062561 0.062561 0.918866
0.289214 0.062561 0.918866
0.664007 0.062561 0.918866
0.918866 0.062561 0.918866
0.918866 0.062561 0.918866
0.918866 0.062561 0.918866
0.918866 0.062561 0.918866
0.062561 0.062561 0.918866
0.062561 0.062561 0.918866
0.062561 0.062561 0.918866
0.288843 0.062561 0.918866
0.663913 0.062561 0.918866
0.918866 0.062561 0.918866
0.918866 0.062561 0.918866
0.918866 0.062561 0.918866
0.918866 0.062561 0.918866
0.062561 0.062561 0.918866
0.062561 0.062561 0.918866
0.062561 0.062561 0.918866
0.277272 0.062561 0.918866
0.661056 0.062561 0.918866
0.918866 0.062561 0.918866
0.918866 0.062561 0.918866
0.918866 0.062561 0.918866
0.918866 0.062561 0.918866
0.062561 0.062561 0.918866
0.062561 0.062561 0.918866
0.062561 0.062561 0.918866
0.169555 0.062561 0.918866
0.642118 0.062561 0.918866
0.918866 0.062561 0.918866
0.918866 0.062561 0.918866
0.918866 0.062561 0.918866
0.918866 0.062561 0.918866
0.062561 0.488105 0.918866
0.062561 0.488092 0.918866
0.062561 0.487692 0.918866
0.062561 0.485102 0.918866
0.572450 0.476461 0.918866
0.884561 0.461562 0.918866
0.918866 0.452720 0.918866
0.918866 0.452482 0.918866
0.918866 0.452482 0.918866
0.062561 0.812996 0.918866
0.062561 0.812991 0.918866
0.062561 0.812821 0.918866
0.062561 0.811720 0.918866
0.408842 0.808102 0.918866
0.819168 0.802054 0.918866
0.918866 0.798580 0.918866
0.918866 0.798488 0.918866
0.918866 0.798488 0.918866
0.062561 0.918866 0.915403
0.062561 0.918866 0.915405
0.062561 0.918866 0.915450
0.062561 0.918866 0.915737
0.216343 0.918866 0.916676
0.777677 0.918866 0.918226
0.916522 0.916163 0.918866
0.918866 0.916089 0.918866
0.918866 0.916089 0.918866
0.062561 0.918866 0.915138
0.062561 0.918866 0.915140
0.062561 0.918866 0.915185
0.062561 0.918866 0.915472
0.206678 0.918866 0.916411
0.776528 0.918866 0.917963
0.915651 0.918866 0.918843
0.918866 0.918866 0.918866
0.918866 0.918866 0.918866
0.062561 0.918866 0.915138
0.062561 0.918866 0.915140
0.062561 0.918866 0.915185
0.062561 0.918866 0.915472
0.206678 0.918866 0.916411
0.776528 0.918866 0.917963
0.915651 0.918866 0.918843
0.918866 0.918866 0.918866
0.918866 0.918866 0.918866
