scripts/lut_convert/AlexaV3_EI0160_LogC2Video_Rec709_LL_davinci3d.cube
# Alexa conversion LUT, logc2video, itu709. Legal in/legal out.
# created by alexalutconv (2.10)
LUT_3D_SIZE 5
0.062561 0.062561 0.062561
0.195829 0.062561 0.063926
0.711037 0.062561 0.100309
0.918866 0.062561 0.157246
0.918866 0.062561 0.157656
0.062561 0.184521 0.062561
0.172217 0.182526 0.062561
0.708407 0.106868 0.084857
0.918866 0.062561 0.147650
0.918866 0.062561 0.148102
0.062561 0.672796 0.062561
0.062561 0.672555 0.062561
0.631190 0.666050 0.062561
0.918866 0.652788 0.062561
0.918866 0.652659 0.062561
0.062561 0.918866 0.062561
0.062561 0.918866 0.062561
0.393449 0.918866 0.062561
0.918866 0.918866 0.062561
0.918866 0.918866 0.062561
0.062561 0.918866 0.062561
0.062561 0.918866 0.062561
0.389862 0.918866 0.062561
0.918866 0.918866 0.062561
0.918866 0.918866 0.062561
0.062561 0.062561 0.173994
0.191267 0.062561 0.174684
0.710490 0.062561 0.191715
0.918866 0.062561 0.219947
0.918866 0.062561 0.220191
0.062561 0.168901 0.165867
0.166609 0.166609 0.166609
0.707856 0.075315 0.184778
0.918866 0.062561 0.214402
0.918866 0.062561 0.214655
0.062561 0.671007 0.062561
0.062561 0.670763 0.062561
0.630521 0.664230 0.062561
0.918866 0.650905 0.062561
0.918866 0.650775 0.062561
0.062561 0.918866 0.062561
0.062561 0.918866 0.062561
0.391982 0.918866 0.062561
0.918866 0.918866 0.062561
0.918866 0.918866 0.062561
0.062561 0.918866 0.062561
0.062561 0.918866 0.062561
0.388372 0.918866 0.062561
0.918866 0.918866 0.062561
0.918866 0.918866 0.062561
0.062561 0.062561 0.637200
0.062561 0.062561 0.637284
0.695611 0.062561 0.639533
0.918866 0.062561 0.643966
0.918866 0.062561 0.644008
0.062561 0.062561 0.636240
0.062561 0.062561 0.636325
0.692882 0.062561 0.638579
0.918866 0.062561 0.643024
0.918866 0.062561 0.643066
0.062561 0.619978 0.609717
0.062561 0.619700 0.609808
0.612228 0.612228 0.612228
0.918866 0.596895 0.616993
0.918866 0.596744 0.617039
0.062561 0.918866 0.550314
0.062561 0.918866 0.550422
0.348988 0.918866 0.553289
0.918866 0.918866 0.558919
0.918866 0.918866 0.558972
0.062561 0.918866 0.549691
0.062561 0.918866 0.549799
0.344612 0.918866 0.552672
0.918866 0.918866 0.558312
0.918866 0.918866 0.558366
0.062561 0.062561 0.918866
0.062561 0.062561 0.918866
0.664320 0.062561 0.918866
0.918866 0.062561 0.918866
0.918866 0.062561 0.918866
0.062561 0.062561 0.918866
0.062561 0.062561 0.918866
0.661370 0.062561 0.918866
0.918866 0.062561 0.918866
0.918866 0.062561 0.918866
0.062561 0.489651 0.918866
0.062561 0.489240 0.918866
0.572850 0.478070 0.918866
0.918866 0.454469 0.918866
0.918866 0.454233 0.918866
0.062561 0.918866 0.912984
0.062561 0.918866 0.913030
0.218277 0.918866 0.914262
0.916703 0.916703 0.916703
0.918866 0.916630 0.916726
0.062561 0.918866 0.912718
0.062561 0.918866 0.912764
0.208755 0.918866 0.913996
0.915833 0.918866 0.916438
0.918866 0.918866 0.916462
0.062561 0.062561 0.918866
0.062561 0.062561 0.918866
0.664007 0.062561 0.918866
0.918866 0.062561 0.918866
0.918866 0.062561 0.918866
0.062561 0.062561 0.918866
0.062561 0.062561 0.918866
0.661056 0.062561 0.918866
0.918866 0.062561 0.918866
0.918866 0.062561 0.918866
0.062561 0.488105 0.918866
0.062561 0.487692 0.918866
0.572450 0.476461 0.918866
0.918866 0.452720 0.918866
0.918866 0.452482 0.918866
0.062561 0.918866 0.915403
0.062561 0.918866 0.915450
0.216343 0.918866 0.916676
0.916522 0.916163 0.918866
0.918866 0.916089 0.918866
0.062561 0.918866 0.915138
0.062561 0.918866 0.915185
0.206678 0.918866 0.916411
0.915651 0.918866 0.918843
0.918866 0.918866 0.918866
